X: 1
T: la Grenouille - Rond de St. Vincent
C: trad. Breton
Z: 2019 John Chambers <jc:trillian.mit.edu>
S: NEFFA 2019 French Jam handout p.13 #2
M: 4/4
L: 1/8
K: Am
|:\
"Am"AAeA "G"fAeA | "F"AAcA "Em"BdcB |\
"Am"AAeA "G"fAeA | "F"AAcA "Em"BdcB :|
|:\
"Am"A2e2 "G"d2cB | "F"ABc2 "Em"BdcB |\
"Am"A2e2 "G"d2cB | "F"ABc2 [1 "Em"BdcB :|2 "Em"BBcd |]
|:\
"C"e2e2 "G"d2cB | "F"ABAG "Em"EEEE |\
"Am"A2e2 "G"d2cB | "Em"dcB2 [1 "Am"ABcd :|2 "Am"AE"Em"EE |]
